!!!OTL: Trinklied.
!!!OTL-incipit: DAS LEBEN GLEICHET DER BLUMEN
!!!COM: J. D. Gerstenberg
!!!ARE: Europa, Mitteleuropa, Deutschland
!!!SCT: F0747
!!!TXL: @@DE
!!!YEM: Copyright 1995, estate of Helmut Schaffrath.
**kern	**text
*ICvox	*
*clefG2	*
*M6/8	*
*k[f#c#g#]	*
*A:	*
!LO:TX:a:t=Einer.	!
!LO:TX:a:t=Bedächtlich.	!
!LO:TX:a:t=P:only the highest voice encoded:problem	!
{8a	1._Das
=1	=1
8.cc#L	Le-
16bJ	.
8cc#	-ben
8a	gleichet
8b/	.
8cc#	der
=2	=2
(>4dd/	Blu-
8b/)	.
4b/;}	-men!
{8g#	So
=3	=3
8g#	ſa-
8f#	-gen
8g#	die
8a	Wei-
8e;	-ſen.
!LO:TX:a:t=Alle.	!
8b/	Wohl-
=4	=4
4cc#/	-an!
8r	.
4r}	.
!LO:TX:a:t=dolce.	!
{8a	Das
=5	=5
8.ee/	laſ-
16ff#/	-ſet
8ee/	uns,
8.cc#/	Freunde,
16dd/	.
8ee/	be-
=6	=6
8.dd/L	-den-
16cc#	.
8ddJ	.
4b/}	-ken,
{16.a/L	und
32cc#J	.
=7	=7
8.ee/	laßt
16ff#/	uns
8ee/	mit
8.cc#/	Weine
16dd/	.
8ee/	ſie
=8	=8
8.dd/L	trän-
16cc#	.
8ddJ	.
4b/}	-ken,
{8dd/	denn
=9	=9
8.cc#/	lib-
16b/	-li-
8a	-cher
8.b/	blü-
16a	-het
8g#	ſie
=10	=10
4.a}	dann,
{4.f#	denn
=11	=11
8e	lieb-
8a	-li-
8cc#/	-cher
8.b/	blü-
16a	-het
8g#	ſie
=12	=12
4a	dann!
8r	.
4r}	.
==	==
!!!AGN: Geselligkeits -, Trink - Lied
!!!ONB: ESAC (Essen Associative Code) Database: FINK
!!!AMT: compound duple
!!!AIN: vox
!!!EED: Helmut Schaffrath
!!!EEV: 1.0
!!Text: v. Halem
!!!RDF**kern: > = above
!!!GTL: Liedertafel- und Gesellschaftslieder
!!!source: Musikalischer Hausschatz der Deutschen. Eine Sammlung von über 1000 Liedern und Gesängen mit Singstimmen und Klavierbegleitung. Leipzig, Litterarisches Verlags-Haus.
!!!page: 512
!!!URL-scan: https://www.digitale-sammlungen.de/en/view/bsb11144622?page=463
!!!ENC: Anna Maria Matuszewska
!!!EEV: 2024/06/08
*-	*-
